core/static/core/platforms/playstation.svg

<svg height="1899" viewBox="-53.207 8.667 718.947 541.86" width="2500" xmlns="http://www.w3.org/2000/svg"><g clip-rule="evenodd" fill-rule="evenodd"><path d="m333.383 121.345-.468 429.182-114.99-37.398v-504.462l146.778 38.806c93.954 25.251 151.45 74.336 150.515 160.36-.934 100.054-47.211 140.256-137.428 114.075v-197.297c0-23.844-44.407-25.24-44.407-3.266z" fill="#de0029"/><path d="m165.1 429.9-54.225 18.237c-35.063 12.158-64.976-16.36-32.722-28.054l26.175-9.344-98.633-31.33c-30.386 10.29-58.902 32.263-57.027 63.12 1.87 31.321 73.387 38.806 128.55 47.689 51.417 8.411 98.162 3.737 140.705-11.224v-32.262zm168.75 120.626 100.502-35.068-101.436-32.254v64.98z" fill="#f3c202"/><path d="m601.232 456.557 1.868-.47c43.941-15.424 62.64-36.938 57.968-57.035-7.48-33.66-61.237-51.897-143.978-57.976-59.365-4.205-117.795 8.882-174.824 28.516l-9.35 3.276 102.372 31.792 59.833-20.107c62.639-11.685 87.886 8.884 27.582 28.054l-29.919 10.28zm-383.307-148.67-45.348 15.423 45.348 14.027z" fill="#326db3"/><path d="m434.351 515.46 166.88-58.903-108.45-33.67-159.866 54.7v5.618zm-216.426-103.326-52.823 17.766 52.823 16.83zm114.99 27.592v-66.859l102.372 31.792zm-228.586-28.986 113.594-40.675v-32.727l-45.346-14.027-164.544 55.635c-.468 0-1.402.462-2.336.462z" fill="#00aa9e"/></g></svg>

<?xml version="1.0" encoding="UTF-8" standalone="no"?>
<svg
   height="75.977348"
   viewBox="-53.207 8.667 28.75788 21.67935"
   width="100"
   version="1.1"
   id="svg4"
   xmlns="http://www.w3.org/2000/svg"
   xmlns:svg="http://www.w3.org/2000/svg">
  <defs
     id="defs4" />
  <g
     clip-rule="evenodd"
     fill-rule="evenodd"
     id="g4"
     transform="matrix(0.0403231,0,0,0.0403231,-51.133601,8.2324572)">
    <path
       d="m 333.383,121.345 -0.468,429.182 -114.99,-37.398 V 8.667 l 146.778,38.806 c 93.954,25.251 151.45,74.336 150.515,160.36 -0.934,100.054 -47.211,140.256 -137.428,114.075 V 124.611 c 0,-23.844 -44.407,-25.24 -44.407,-3.266 z"
       fill="#de0029"
       id="path1" />
    <path
       d="m 165.1,429.9 -54.225,18.237 C 75.812,460.295 45.899,431.777 78.153,420.083 l 26.175,-9.344 -98.633,-31.33 c -30.386,10.29 -58.902,32.263 -57.027,63.12 1.87,31.321 73.387,38.806 128.55,47.689 51.417,8.411 98.162,3.737 140.705,-11.224 V 446.732 Z M 333.85,550.526 434.352,515.458 332.916,483.204 v 64.98 z"
       fill="#f3c202"
       id="path2" />
    <path
       d="m 601.232,456.557 1.868,-0.47 c 43.941,-15.424 62.64,-36.938 57.968,-57.035 -7.48,-33.66 -61.237,-51.897 -143.978,-57.976 -59.365,-4.205 -117.795,8.882 -174.824,28.516 l -9.35,3.276 102.372,31.792 59.833,-20.107 c 62.639,-11.685 87.886,8.884 27.582,28.054 l -29.919,10.28 z m -383.307,-148.67 -45.348,15.423 45.348,14.027 z"
       fill="#326db3"
       id="path3" />
    <path
       d="m 434.351,515.46 166.88,-58.903 -108.45,-33.67 -159.866,54.7 v 5.618 z M 217.925,412.134 165.102,429.9 l 52.823,16.83 z m 114.99,27.592 v -66.859 l 102.372,31.792 z M 104.329,410.74 217.923,370.065 V 337.338 L 172.577,323.311 8.033,378.946 c -0.468,0 -1.402,0.462 -2.336,0.462 z"
       fill="#00aa9e"
       id="path4" />
  </g>
</svg>
